svg/m/JE.svg

<svg width="20" height="15" viewBox="0 0 20 15" fill="none" xmlns="http://www.w3.org/2000/svg">
<g clip-path="url(#clip0_270_60884)">
<rect width="20" height="15" fill="white"/>
<path fill-rule="evenodd" clip-rule="evenodd" d="M0 0H20V15H0V0Z" fill="#F7FCFF"/>
<path d="M-1.68841 0.777984L-2.96875 0.00379562V1.5V14V15.4962L-1.68841 14.722L8.6477 8.47202L9.84175 7.75L8.6477 7.02798L-1.68841 0.777984Z" fill="#F7FCFF" stroke="#E31D1C" stroke-width="1.6875"/>
<path d="M21.8256 0.77037L23.093 0.0342646V1.5V14V15.4657L21.8256 14.7296L11.0638 8.47963L9.80745 7.75L11.0638 7.02037L21.8256 0.77037Z" fill="#F7FCFF" stroke="#E31D1C" stroke-width="1.6875"/>
<path fill-rule="evenodd" clip-rule="evenodd" d="M8.5467 2.93938C8.5467 2.93938 8.01005 5.31332 9.86301 6.22508C9.86301 6.22508 11.6419 5.2555 11.2423 2.93938C11.2423 2.93938 10.4784 2.68382 9.8709 2.68382C9.26343 2.68382 8.5467 2.93938 8.5467 2.93938Z" fill="#E31D1C"/>
<path fill-rule="evenodd" clip-rule="evenodd" d="M8.73903 3.43659C8.73903 3.43659 8.93721 3.34886 9.03531 3.43659C9.13341 3.52433 9.21379 3.42932 9.21379 3.3764C9.21379 3.32347 9.36956 3.14179 9.36956 3.28919C9.36956 3.43659 9.32107 3.51982 9.45799 3.51982C9.59491 3.51982 10.2115 3.31621 10.3593 3.3764C10.5071 3.43659 10.6203 3.42162 10.5827 3.33525C10.5451 3.24889 10.4485 3.1949 10.2625 3.24205C10.0765 3.28919 10.1204 3.33525 9.95968 3.33525C9.79893 3.33525 9.62002 3.28919 9.62002 3.28919C9.62002 3.28919 9.67028 3.21174 9.8538 3.26683C10.0373 3.32193 10.2905 3.1986 10.3593 3.1986C10.4281 3.1986 10.6176 3.1949 10.6364 3.24205C10.6552 3.28919 10.7696 3.33245 10.6824 3.3764C10.5952 3.42035 10.4514 3.44788 10.5503 3.50419C10.6493 3.56049 10.8768 3.54964 10.8877 3.60821C10.8987 3.66679 11.0065 3.75425 10.9633 3.75425C10.92 3.75425 10.8418 3.83674 10.7689 3.81162C10.6961 3.78651 10.6875 3.76445 10.7574 3.74411C10.8272 3.72376 10.8265 3.63819 10.7689 3.63819C10.7113 3.63819 10.7394 3.66817 10.6083 3.63819C10.4771 3.60821 10.3036 3.57489 10.314 3.63819C10.3244 3.7015 10.4098 3.79867 10.2523 3.81162C10.0948 3.82457 10.021 3.87657 9.99035 3.8347C9.95968 3.79282 9.85008 3.73703 9.93627 3.71914C10.0224 3.70125 10.1048 3.77995 10.1358 3.7671C10.1669 3.75425 10.2372 3.7471 10.1783 3.69264C10.1194 3.63819 10.0222 3.60614 10.1123 3.56538C10.2024 3.52462 10.1313 3.52378 9.95968 3.60821C9.78807 3.69264 9.69262 3.7644 9.54196 3.75425C9.3913 3.74411 9.33487 3.75779 9.28644 3.74411C9.23802 3.73042 9.00218 3.89532 8.93426 3.85347C8.86635 3.81162 8.6471 3.79557 8.68657 3.74411C8.72604 3.69264 8.77903 3.66615 8.83805 3.69264C8.89707 3.71914 8.95571 3.74563 8.99551 3.71914C9.03531 3.69264 9.15025 3.60173 9.12134 3.58356C9.09243 3.56538 9.12039 3.50419 8.9567 3.50419C8.79301 3.50419 8.73546 3.57238 8.6966 3.52941C8.65774 3.48645 8.73903 3.43659 8.73903 3.43659Z" fill="#FFD100"/>
<path fill-rule="evenodd" clip-rule="evenodd" d="M8.90259 4.21665C8.90259 4.21665 9.07682 4.13952 9.16307 4.21665C9.24932 4.29378 9.31998 4.21026 9.31998 4.16373C9.31998 4.1172 9.45693 3.95747 9.45693 4.08706C9.45693 4.21665 9.4143 4.28982 9.53467 4.28982C9.65505 4.28982 10.1971 4.11081 10.3271 4.16373C10.4571 4.21665 10.5565 4.20349 10.5235 4.12756C10.4904 4.05162 10.4055 4.00417 10.242 4.04561C10.0785 4.08706 10.1171 4.12756 9.97575 4.12756C9.83442 4.12756 9.67713 4.08706 9.67713 4.08706C9.67713 4.08706 9.72132 4.01896 9.88266 4.0674C10.044 4.11584 10.2665 4.00741 10.3271 4.00741C10.3876 4.00741 10.5542 4.00417 10.5707 4.04561C10.5872 4.08706 10.6878 4.12509 10.6111 4.16373C10.5344 4.20237 10.408 4.22657 10.495 4.27607C10.582 4.32558 10.782 4.31604 10.7917 4.36753C10.8013 4.41903 10.8961 4.49592 10.858 4.49592C10.82 4.49592 10.7512 4.56844 10.6872 4.54636C10.6232 4.52428 10.6156 4.50489 10.677 4.487C10.7384 4.46911 10.7378 4.39389 10.6872 4.39389C10.6366 4.39389 10.6613 4.42024 10.546 4.39389C10.4307 4.36753 10.2781 4.33823 10.2873 4.39389C10.2964 4.44954 10.3715 4.53497 10.233 4.54636C10.0945 4.55775 10.0297 4.60346 10.0027 4.56665C9.97575 4.52983 9.87939 4.48078 9.95516 4.46505C10.0309 4.44932 10.1033 4.51852 10.1306 4.50722C10.1579 4.49592 10.2198 4.48963 10.168 4.44176C10.1162 4.39389 10.0307 4.3657 10.1099 4.32987C10.1891 4.29404 10.1266 4.2933 9.97575 4.36753C9.82487 4.44176 9.74095 4.50484 9.6085 4.49592C9.47604 4.487 9.42643 4.49903 9.38386 4.487C9.34129 4.47497 9.13394 4.61995 9.07423 4.58315C9.01453 4.54636 8.82177 4.53224 8.85647 4.487C8.89117 4.44176 8.93776 4.41847 8.98965 4.44176C9.04153 4.46505 9.09309 4.48835 9.12808 4.46505C9.16307 4.44176 9.26412 4.36183 9.2387 4.34585C9.21329 4.32987 9.23787 4.27607 9.09396 4.27607C8.95005 4.27607 8.89945 4.33603 8.86529 4.29825C8.83113 4.26048 8.90259 4.21665 8.90259 4.21665Z" fill="#FFD100"/>
<path fill-rule="evenodd" clip-rule="evenodd" d="M9.13391 5.00843C9.13391 5.00843 9.26603 4.94994 9.33143 5.00843C9.39683 5.06692 9.45042 5.00359 9.45042 4.9683C9.45042 4.93302 9.55426 4.81189 9.55426 4.91016C9.55426 5.00843 9.52194 5.06392 9.61322 5.06392C9.7045 5.06392 10.1155 4.92817 10.2141 4.9683C10.3127 5.00843 10.3881 4.99845 10.363 4.94087C10.338 4.88329 10.2736 4.84731 10.1496 4.87873C10.0256 4.91016 10.0548 4.94087 9.94768 4.94087C9.84051 4.94087 9.72124 4.91016 9.72124 4.91016C9.72124 4.91016 9.75475 4.85853 9.87709 4.89526C9.99944 4.93199 10.1682 4.84977 10.2141 4.84977C10.26 4.84977 10.3863 4.84731 10.3988 4.87873C10.4113 4.91016 10.4876 4.939 10.4295 4.9683C10.3713 4.9976 10.2755 5.01595 10.3414 5.05349C10.4074 5.09103 10.5591 5.0838 10.5664 5.12285C10.5737 5.16189 10.6456 5.2202 10.6167 5.2202C10.5879 5.2202 10.5357 5.27519 10.4872 5.25845C10.4386 5.24171 10.4329 5.227 10.4795 5.21344C10.526 5.19987 10.5256 5.14283 10.4872 5.14283C10.4488 5.14283 10.4675 5.16282 10.3801 5.14283C10.2927 5.12285 10.1769 5.10063 10.1839 5.14283C10.1909 5.18503 10.2478 5.24982 10.1428 5.25845C10.0377 5.26708 9.98857 5.30175 9.96812 5.27383C9.94768 5.24592 9.87461 5.20872 9.93207 5.1968C9.98952 5.18487 10.0444 5.23734 10.0651 5.22877C10.0858 5.2202 10.1327 5.21543 10.0934 5.17913C10.0542 5.14283 9.98938 5.12146 10.0494 5.09429C10.1095 5.06712 10.0621 5.06656 9.94768 5.12285C9.83327 5.17913 9.76964 5.22697 9.6692 5.2202C9.56876 5.21344 9.53114 5.22256 9.49885 5.21344C9.46657 5.20432 9.30934 5.31425 9.26407 5.28635C9.21879 5.25845 9.07263 5.24775 9.09894 5.21344C9.12525 5.17913 9.16058 5.16147 9.19992 5.17913C9.23927 5.1968 9.27837 5.21446 9.3049 5.1968C9.33143 5.17913 9.40806 5.11852 9.38878 5.10641C9.36951 5.09429 9.38815 5.05349 9.27902 5.05349C9.1699 5.05349 9.13153 5.09896 9.10563 5.07031C9.07972 5.04167 9.13391 5.00843 9.13391 5.00843Z" fill="#FFD100"/>
</g>
<defs>
<clipPath id="clip0_270_60884">
<rect width="20" height="15" fill="white"/>
</clipPath>
</defs>
</svg>

<svg width="20" height="15" fill="none" xmlns="http://www.w3.org/2000/svg">
  <mask id="a" maskUnits="userSpaceOnUse" x="0" y="0" width="20" height="15">
    <path fill="#fff" d="M0 0h20v15H0z"/>
  </mask>
  <g mask="url(#a)">
    <path fill-rule="evenodd" clip-rule="evenodd" d="M0 0h20v15H0V0z" fill="#F7FCFF"/>
    <path d="M-1.688.778l-1.28-.774v15.492l1.28-.774 10.336-6.25 1.194-.722-1.194-.722L-1.688.778z" fill="#F7FCFF" stroke="#E31D1C" stroke-width="1.688"/>
    <path d="M21.826.77l1.267-.736v15.432l-1.267-.736-10.762-6.25-1.257-.73 1.257-.73L21.826.77z" fill="#F7FCFF" stroke="#E31D1C" stroke-width="1.688"/>
    <path fill-rule="evenodd" clip-rule="evenodd" d="M8.547 2.94S8.01 5.312 9.863 6.224c0 0 1.779-.97 1.38-3.286 0 0-.765-.255-1.372-.255-.608 0-1.324.255-1.324.255z" fill="#E31D1C"/>
    <path fill-rule="evenodd" clip-rule="evenodd" d="M8.739 3.437s.198-.088.296 0c.098.087.179-.008.179-.06 0-.054.156-.235.156-.088 0 .148-.049.23.088.23s.753-.203.901-.143c.148.06.261.046.224-.04-.038-.087-.135-.141-.32-.094-.187.047-.143.093-.303.093-.161 0-.34-.046-.34-.046s.05-.077.234-.022c.183.055.437-.068.505-.068.07 0 .259-.004.277.043.02.047.134.09.046.134-.087.044-.23.072-.132.128.1.056.327.046.338.104.01.059.119.146.075.146-.043 0-.121.083-.194.058-.073-.025-.082-.048-.012-.068.07-.02.07-.106.012-.106-.058 0-.03.03-.16 0-.132-.03-.305-.063-.295 0 .01.063.096.16-.062.174-.157.013-.231.065-.262.023-.03-.042-.14-.098-.054-.116.086-.018.169.061.2.048.03-.013.101-.02.042-.074-.059-.055-.156-.087-.066-.128.09-.04.02-.041-.152.043-.172.085-.267.156-.418.146-.15-.01-.207.004-.256-.01-.048-.014-.284.151-.352.11-.068-.042-.287-.058-.247-.11.039-.051.092-.078.151-.051.06.026.118.053.158.026.04-.026.154-.117.125-.135-.029-.019 0-.08-.164-.08s-.222.068-.26.025c-.04-.043.042-.092.042-.092zm.164.78s.174-.077.26 0c.086.077.157-.007.157-.053 0-.047.137-.207.137-.077s-.043.203.078.203c.12 0 .662-.18.792-.126.13.053.23.04.197-.036-.034-.076-.118-.124-.282-.082-.164.041-.125.082-.266.082-.142 0-.299-.04-.299-.04s.044-.069.206-.02c.161.048.384-.06.444-.06s.227-.004.244.038c.016.041.117.08.04.118-.077.038-.203.063-.116.112.087.05.287.04.297.092.01.051.104.128.066.128-.038 0-.107.072-.17.05-.065-.022-.072-.041-.011-.059.061-.018.06-.093.01-.093-.05 0-.026.026-.141 0-.115-.026-.268-.056-.259 0 .01.056.084.141-.054.152-.139.012-.203.057-.23.02-.027-.036-.124-.085-.048-.101s.148.054.176.042c.027-.011.089-.017.037-.065s-.137-.076-.058-.112c.08-.036.017-.037-.134.038-.151.074-.235.137-.368.128-.132-.009-.182.003-.224-.009-.043-.012-.25.133-.31.096-.06-.037-.252-.05-.218-.096.035-.045.082-.069.134-.045.052.023.103.046.138.023.035-.023.136-.103.11-.12-.025-.015 0-.069-.144-.069s-.195.06-.229.022.038-.081.038-.081zm.231.791s.132-.058.197 0c.066.059.12-.004.12-.04 0-.035.103-.156.103-.058s-.032.154.06.154c.09 0 .502-.136.6-.096.099.04.174.03.149-.027-.025-.058-.09-.094-.213-.062-.124.031-.095.062-.202.062-.107 0-.227-.03-.227-.03s.034-.052.156-.016c.122.037.291-.045.337-.045.046 0 .172-.003.185.029.012.031.089.06.03.09-.058.029-.154.047-.088.084.066.038.218.03.225.07.008.039.08.097.05.097-.028 0-.08.055-.129.038-.048-.016-.054-.031-.008-.045.047-.013.047-.07.008-.07-.038 0-.02.02-.107 0s-.203-.042-.196 0c.007.042.064.107-.041.115-.105.01-.154.044-.175.016-.02-.028-.093-.065-.036-.077.058-.012.112.04.133.032.02-.009.068-.014.028-.05-.039-.036-.104-.058-.044-.085.06-.027.013-.027-.101.029-.115.056-.178.104-.279.097-.1-.007-.138.003-.17-.007-.032-.009-.19.101-.235.073-.045-.028-.191-.038-.165-.073.026-.034.062-.052.1-.034.04.018.08.035.106.018.026-.018.103-.078.084-.09-.02-.013 0-.054-.11-.054s-.147.046-.173.017c-.026-.028.028-.062.028-.062z" fill="#FFD100"/>
  </g>
</svg>
